images/28225.svg

<?xml version="1.0" encoding="UTF-8"?>
<svg xmlns="http://www.w3.org/2000/svg" xmlns:xlink="http://www.w3.org/1999/xlink" width="300pt" height="300pt" viewBox="0 0 300 300" version="1.1">
<defs>
<g>
<symbol overflow="visible" id="glyph0-0">
<path style="stroke:none;" d="M 0.796875 2.828125 L 0.796875 -11.28125 L 8.796875 -11.28125 L 8.796875 2.828125 Z M 1.703125 1.9375 L 7.90625 1.9375 L 7.90625 -10.390625 L 1.703125 -10.390625 Z M 1.703125 1.9375 "/>
</symbol>
<symbol overflow="visible" id="glyph0-1">
<path style="stroke:none;" d="M 6.3125 -10.59375 C 5.164062 -10.59375 4.253906 -10.164062 3.578125 -9.3125 C 2.898438 -8.457031 2.5625 -7.296875 2.5625 -5.828125 C 2.5625 -4.359375 2.898438 -3.195312 3.578125 -2.34375 C 4.253906 -1.488281 5.164062 -1.0625 6.3125 -1.0625 C 7.457031 -1.0625 8.363281 -1.488281 9.03125 -2.34375 C 9.695312 -3.195312 10.03125 -4.359375 10.03125 -5.828125 C 10.03125 -7.296875 9.695312 -8.457031 9.03125 -9.3125 C 8.363281 -10.164062 7.457031 -10.59375 6.3125 -10.59375 Z M 6.3125 -11.875 C 7.945312 -11.875 9.253906 -11.328125 10.234375 -10.234375 C 11.210938 -9.140625 11.703125 -7.671875 11.703125 -5.828125 C 11.703125 -3.984375 11.210938 -2.507812 10.234375 -1.40625 C 9.253906 -0.3125 7.945312 0.234375 6.3125 0.234375 C 4.664062 0.234375 3.351562 -0.3125 2.375 -1.40625 C 1.394531 -2.507812 0.90625 -3.984375 0.90625 -5.828125 C 0.90625 -7.671875 1.394531 -9.140625 2.375 -10.234375 C 3.351562 -11.328125 4.664062 -11.875 6.3125 -11.875 Z M 6.3125 -11.875 "/>
</symbol>
<symbol overflow="visible" id="glyph0-2">
<path style="stroke:none;" d="M 1.578125 -11.671875 L 3.703125 -11.671875 L 8.875 -1.90625 L 8.875 -11.671875 L 10.40625 -11.671875 L 10.40625 0 L 8.28125 0 L 3.109375 -9.765625 L 3.109375 0 L 1.578125 0 Z M 1.578125 -11.671875 "/>
</symbol>
<symbol overflow="visible" id="glyph0-3">
<path style="stroke:none;" d="M 1.578125 -11.671875 L 3.15625 -11.671875 L 3.15625 -6.890625 L 8.890625 -6.890625 L 8.890625 -11.671875 L 10.46875 -11.671875 L 10.46875 0 L 8.890625 0 L 8.890625 -5.5625 L 3.15625 -5.5625 L 3.15625 0 L 1.578125 0 Z M 1.578125 -11.671875 "/>
</symbol>
</g>
</defs>
<g id="surface19389">
<rect x="0" y="0" width="300" height="300" style="fill:rgb(100%,100%,100%);fill-opacity:1;stroke:none;"/>
<path style="fill:none;stroke-width:1.2;stroke-linecap:butt;stroke-linejoin:miter;stroke:rgb(100%,0%,0%);stroke-opacity:1;stroke-miterlimit:10;" d="M 37.554688 193.941406 L 52.210938 181.65625 "/>
<path style="fill:none;stroke-width:1.2;stroke-linecap:butt;stroke-linejoin:miter;stroke:rgb(0%,0%,0%);stroke-opacity:1;stroke-miterlimit:10;" d="M 52.210938 181.65625 L 66.871094 169.367188 "/>
<path style="fill:none;stroke-width:1.2;stroke-linecap:butt;stroke-linejoin:miter;stroke:rgb(100%,0%,0%);stroke-opacity:1;stroke-miterlimit:10;" d="M 31.773438 187.042969 L 46.429688 174.757812 "/>
<path style="fill:none;stroke-width:1.2;stroke-linecap:butt;stroke-linejoin:miter;stroke:rgb(0%,0%,0%);stroke-opacity:1;stroke-miterlimit:10;" d="M 46.429688 174.757812 L 61.085938 162.472656 "/>
<path style=" stroke:none;fill-rule:nonzero;fill:rgb(100%,100%,100%);fill-opacity:1;" d="M 21.664062 180.992188 L 34.664062 180.992188 L 34.664062 199.992188 L 21.664062 199.992188 Z M 21.664062 180.992188 "/>
<g style="fill:rgb(100%,0%,0%);fill-opacity:1;">
  <use xlink:href="#glyph0-1" x="21.664062" y="195.84375"/>
</g>
<path style="fill:none;stroke-width:1.2;stroke-linecap:butt;stroke-linejoin:miter;stroke:rgb(0%,0%,0%);stroke-opacity:1;stroke-miterlimit:10;" d="M 63.976562 165.917969 L 82.53125 170.554688 "/>
<path style="fill:none;stroke-width:1.2;stroke-linecap:butt;stroke-linejoin:miter;stroke:rgb(0%,0%,100%);stroke-opacity:1;stroke-miterlimit:10;" d="M 82.53125 170.554688 L 101.085938 175.191406 "/>
<path style="fill:none;stroke-width:1.2;stroke-linecap:butt;stroke-linejoin:miter;stroke:rgb(0%,0%,100%);stroke-opacity:1;stroke-miterlimit:10;" d="M 61.328125 127.761719 L 62.652344 146.839844 "/>
<path style="fill:none;stroke-width:1.2;stroke-linecap:butt;stroke-linejoin:miter;stroke:rgb(0%,0%,0%);stroke-opacity:1;stroke-miterlimit:10;" d="M 62.652344 146.839844 L 63.976562 165.917969 "/>
<path style="fill:none;stroke-width:1.2;stroke-linecap:butt;stroke-linejoin:miter;stroke:rgb(0%,0%,100%);stroke-opacity:1;stroke-miterlimit:10;" d="M 101.085938 175.191406 L 111.230469 158.976562 "/>
<path style="fill:none;stroke-width:1.2;stroke-linecap:butt;stroke-linejoin:miter;stroke:rgb(0%,0%,0%);stroke-opacity:1;stroke-miterlimit:10;" d="M 111.230469 158.976562 L 121.371094 142.761719 "/>
<path style="fill:none;stroke-width:1.2;stroke-linecap:butt;stroke-linejoin:miter;stroke:rgb(0%,0%,100%);stroke-opacity:1;stroke-miterlimit:10;" d="M 101.085938 175.191406 L 108.242188 192.925781 "/>
<path style="fill:none;stroke-width:1.2;stroke-linecap:butt;stroke-linejoin:miter;stroke:rgb(0%,0%,0%);stroke-opacity:1;stroke-miterlimit:10;" d="M 108.242188 192.925781 L 115.398438 210.664062 "/>
<path style=" stroke:none;fill-rule:nonzero;fill:rgb(100%,100%,100%);fill-opacity:1;" d="M 95.085938 165.691406 L 107.085938 165.691406 L 107.085938 184.691406 L 95.085938 184.691406 Z M 95.085938 165.691406 "/>
<g style="fill:rgb(0%,0%,100%);fill-opacity:1;">
  <use xlink:href="#glyph0-2" x="95.085938" y="180.542969"/>
</g>
<path style="fill:none;stroke-width:1.2;stroke-linecap:butt;stroke-linejoin:miter;stroke:rgb(0%,0%,0%);stroke-opacity:1;stroke-miterlimit:10;" d="M 121.371094 142.761719 L 159.042969 136.140625 "/>
<path style="fill:none;stroke-width:1.2;stroke-linecap:butt;stroke-linejoin:miter;stroke:rgb(0%,0%,0%);stroke-opacity:1;stroke-miterlimit:10;" d="M 123.582031 133.238281 L 153.71875 127.9375 "/>
<path style="fill:none;stroke-width:1.2;stroke-linecap:butt;stroke-linejoin:miter;stroke:rgb(0%,0%,0%);stroke-opacity:1;stroke-miterlimit:10;" d="M 96.800781 113.449219 L 121.371094 142.761719 "/>
<path style="fill:none;stroke-width:1.2;stroke-linecap:butt;stroke-linejoin:miter;stroke:rgb(0%,0%,0%);stroke-opacity:1;stroke-miterlimit:10;" d="M 159.042969 136.140625 L 172.144531 100.203125 "/>
<path style="fill:none;stroke-width:1.2;stroke-linecap:butt;stroke-linejoin:miter;stroke:rgb(0%,0%,0%);stroke-opacity:1;stroke-miterlimit:10;" d="M 172.144531 100.203125 L 147.570312 70.890625 "/>
<path style="fill:none;stroke-width:1.2;stroke-linecap:butt;stroke-linejoin:miter;stroke:rgb(0%,0%,0%);stroke-opacity:1;stroke-miterlimit:10;" d="M 162.789062 103.050781 L 143.132812 79.601562 "/>
<path style="fill:none;stroke-width:1.2;stroke-linecap:butt;stroke-linejoin:miter;stroke:rgb(0%,0%,0%);stroke-opacity:1;stroke-miterlimit:10;" d="M 172.144531 100.203125 L 209.816406 93.578125 "/>
<path style="fill:none;stroke-width:1.2;stroke-linecap:butt;stroke-linejoin:miter;stroke:rgb(0%,0%,0%);stroke-opacity:1;stroke-miterlimit:10;" d="M 147.570312 70.890625 L 109.898438 77.511719 "/>
<path style="fill:none;stroke-width:1.2;stroke-linecap:butt;stroke-linejoin:miter;stroke:rgb(0%,0%,0%);stroke-opacity:1;stroke-miterlimit:10;" d="M 109.898438 77.511719 L 96.800781 113.449219 "/>
<path style="fill:none;stroke-width:1.2;stroke-linecap:butt;stroke-linejoin:miter;stroke:rgb(0%,0%,0%);stroke-opacity:1;stroke-miterlimit:10;" d="M 117.046875 84.1875 L 106.566406 112.9375 "/>
<path style="fill:none;stroke-width:1.2;stroke-linecap:butt;stroke-linejoin:miter;stroke:rgb(0%,0%,0%);stroke-opacity:1;stroke-miterlimit:10;" d="M 96.800781 113.449219 L 79.0625 120.605469 "/>
<path style="fill:none;stroke-width:1.2;stroke-linecap:butt;stroke-linejoin:miter;stroke:rgb(0%,0%,100%);stroke-opacity:1;stroke-miterlimit:10;" d="M 79.0625 120.605469 L 61.328125 127.761719 "/>
<path style="fill:none;stroke-width:1.2;stroke-linecap:butt;stroke-linejoin:miter;stroke:rgb(0%,0%,100%);stroke-opacity:1;stroke-miterlimit:10;" d="M 61.328125 127.761719 L 45.113281 117.617188 "/>
<path style="fill:none;stroke-width:1.2;stroke-linecap:butt;stroke-linejoin:miter;stroke:rgb(0%,0%,0%);stroke-opacity:1;stroke-miterlimit:10;" d="M 45.113281 117.617188 L 28.898438 107.476562 "/>
<path style=" stroke:none;fill-rule:nonzero;fill:rgb(100%,100%,100%);fill-opacity:1;" d="M 55.328125 118.261719 L 67.328125 118.261719 L 67.328125 137.261719 L 55.328125 137.261719 Z M 55.328125 118.261719 "/>
<g style="fill:rgb(0%,0%,100%);fill-opacity:1;">
  <use xlink:href="#glyph0-2" x="55.328125" y="133.113281"/>
</g>
<path style="fill:none;stroke-width:1.2;stroke-linecap:butt;stroke-linejoin:miter;stroke:rgb(0%,0%,0%);stroke-opacity:1;stroke-miterlimit:10;" d="M 28.898438 107.476562 L 30.253906 69.25 "/>
<path style="fill:none;stroke-width:1.2;stroke-linecap:butt;stroke-linejoin:miter;stroke:rgb(0%,0%,0%);stroke-opacity:1;stroke-miterlimit:10;" d="M 209.816406 93.578125 L 226.601562 59.207031 "/>
<path style="fill:none;stroke-width:1.2;stroke-linecap:butt;stroke-linejoin:miter;stroke:rgb(0%,0%,0%);stroke-opacity:1;stroke-miterlimit:10;" d="M 219.582031 94.089844 L 233.007812 66.59375 "/>
<path style="fill:none;stroke-width:1.2;stroke-linecap:butt;stroke-linejoin:miter;stroke:rgb(0%,0%,0%);stroke-opacity:1;stroke-miterlimit:10;" d="M 237.316406 120.160156 L 209.816406 93.578125 "/>
<path style="fill:none;stroke-width:1.2;stroke-linecap:butt;stroke-linejoin:miter;stroke:rgb(0%,0%,0%);stroke-opacity:1;stroke-miterlimit:10;" d="M 226.601562 59.207031 L 245.539062 61.878906 "/>
<path style="fill:none;stroke-width:1.2;stroke-linecap:butt;stroke-linejoin:miter;stroke:rgb(0%,0%,100%);stroke-opacity:1;stroke-miterlimit:10;" d="M 245.539062 61.878906 L 264.476562 64.546875 "/>
<path style="fill:none;stroke-width:1.2;stroke-linecap:butt;stroke-linejoin:miter;stroke:rgb(0%,0%,100%);stroke-opacity:1;stroke-miterlimit:10;" d="M 264.476562 64.546875 L 271.101562 102.222656 "/>
<path style=" stroke:none;fill-rule:nonzero;fill:rgb(100%,100%,100%);fill-opacity:1;" d="M 252.476562 55.046875 L 276.476562 55.046875 L 276.476562 74.046875 L 252.476562 74.046875 Z M 252.476562 55.046875 "/>
<g style="fill:rgb(0%,0%,100%);fill-opacity:1;">
  <use xlink:href="#glyph0-2" x="252.476562" y="69.898438"/>
  <use xlink:href="#glyph0-3" x="264.445312" y="69.898438"/>
</g>
<path style="fill:none;stroke-width:1.2;stroke-linecap:butt;stroke-linejoin:miter;stroke:rgb(0%,0%,100%);stroke-opacity:1;stroke-miterlimit:10;" d="M 271.101562 102.222656 L 254.210938 111.191406 "/>
<path style="fill:none;stroke-width:1.2;stroke-linecap:butt;stroke-linejoin:miter;stroke:rgb(0%,0%,0%);stroke-opacity:1;stroke-miterlimit:10;" d="M 254.210938 111.191406 L 237.316406 120.160156 "/>
<path style="fill:none;stroke-width:1.2;stroke-linecap:butt;stroke-linejoin:miter;stroke:rgb(0%,0%,100%);stroke-opacity:1;stroke-miterlimit:10;" d="M 263.5 96.066406 L 249.988281 103.242188 "/>
<path style="fill:none;stroke-width:1.2;stroke-linecap:butt;stroke-linejoin:miter;stroke:rgb(0%,0%,0%);stroke-opacity:1;stroke-miterlimit:10;" d="M 249.988281 103.242188 L 236.476562 110.417969 "/>
<path style=" stroke:none;fill-rule:nonzero;fill:rgb(100%,100%,100%);fill-opacity:1;" d="M 265.101562 92.722656 L 277.101562 92.722656 L 277.101562 111.722656 L 265.101562 111.722656 Z M 265.101562 92.722656 "/>
<g style="fill:rgb(0%,0%,100%);fill-opacity:1;">
  <use xlink:href="#glyph0-2" x="265.101562" y="107.574219"/>
</g>
<path style="fill:none;stroke-width:1.2;stroke-linecap:butt;stroke-linejoin:miter;stroke:rgb(0%,0%,0%);stroke-opacity:1;stroke-miterlimit:10;" d="M 237.316406 120.160156 L 231.976562 158.035156 "/>
<path style="fill:none;stroke-width:1.2;stroke-linecap:butt;stroke-linejoin:miter;stroke:rgb(0%,0%,0%);stroke-opacity:1;stroke-miterlimit:10;" d="M 231.976562 158.035156 L 196.503906 172.347656 "/>
<path style="fill:none;stroke-width:1.2;stroke-linecap:butt;stroke-linejoin:miter;stroke:rgb(0%,0%,0%);stroke-opacity:1;stroke-miterlimit:10;" d="M 231.796875 167.816406 L 203.417969 179.265625 "/>
<path style="fill:none;stroke-width:1.2;stroke-linecap:butt;stroke-linejoin:miter;stroke:rgb(0%,0%,0%);stroke-opacity:1;stroke-miterlimit:10;" d="M 262.105469 181.601562 L 231.976562 158.035156 "/>
<path style="fill:none;stroke-width:1.2;stroke-linecap:butt;stroke-linejoin:miter;stroke:rgb(0%,0%,0%);stroke-opacity:1;stroke-miterlimit:10;" d="M 196.503906 172.347656 L 191.164062 210.222656 "/>
<path style="fill:none;stroke-width:1.2;stroke-linecap:butt;stroke-linejoin:miter;stroke:rgb(0%,0%,0%);stroke-opacity:1;stroke-miterlimit:10;" d="M 191.164062 210.222656 L 221.292969 233.789062 "/>
<path style="fill:none;stroke-width:1.2;stroke-linecap:butt;stroke-linejoin:miter;stroke:rgb(0%,0%,0%);stroke-opacity:1;stroke-miterlimit:10;" d="M 199.722656 205.492188 L 223.824219 224.339844 "/>
<path style="fill:none;stroke-width:1.2;stroke-linecap:butt;stroke-linejoin:miter;stroke:rgb(0%,0%,0%);stroke-opacity:1;stroke-miterlimit:10;" d="M 191.164062 210.222656 L 155.691406 224.535156 "/>
<path style="fill:none;stroke-width:1.2;stroke-linecap:butt;stroke-linejoin:miter;stroke:rgb(0%,0%,0%);stroke-opacity:1;stroke-miterlimit:10;" d="M 221.292969 233.789062 L 256.765625 219.476562 "/>
<path style="fill:none;stroke-width:1.2;stroke-linecap:butt;stroke-linejoin:miter;stroke:rgb(0%,0%,0%);stroke-opacity:1;stroke-miterlimit:10;" d="M 256.765625 219.476562 L 262.105469 181.601562 "/>
<path style="fill:none;stroke-width:1.2;stroke-linecap:butt;stroke-linejoin:miter;stroke:rgb(0%,0%,0%);stroke-opacity:1;stroke-miterlimit:10;" d="M 248.386719 214.429688 L 252.660156 184.132812 "/>
<path style="fill:none;stroke-width:1.2;stroke-linecap:butt;stroke-linejoin:miter;stroke:rgb(0%,0%,0%);stroke-opacity:1;stroke-miterlimit:10;" d="M 115.398438 210.664062 L 91.835938 240.792969 "/>
</g>
</svg>

<svg xmlns="http://www.w3.org/2000/svg" xmlns:xlink="http://www.w3.org/1999/xlink" width="300pt" height="300pt" viewBox="0 0 300 300"><defs><symbol overflow="visible"><path d="M.797 2.828v-14.11h8V2.83zm.906-.89h6.203v-12.33H1.703zm0 0"/></symbol><symbol overflow="visible" id="a"><path d="M6.313-10.594c-1.15 0-2.06.43-2.735 1.28-.68.857-1.015 2.017-1.015 3.486 0 1.47.335 2.633 1.015 3.484.676.856 1.586 1.28 2.735 1.28 1.144.002 2.05-.424 2.718-1.28.665-.85 1-2.015 1-3.484 0-1.47-.335-2.63-1-3.484-.667-.852-1.573-1.282-2.717-1.282zm0-1.28c1.632 0 2.94.546 3.92 1.64.978 1.093 1.47 2.562 1.47 4.406 0 1.844-.492 3.32-1.47 4.422-.98 1.093-2.288 1.64-3.92 1.64-1.65 0-2.96-.546-3.938-1.64-.98-1.102-1.47-2.578-1.47-4.422 0-1.844.49-3.313 1.47-4.406.977-1.094 2.29-1.64 3.938-1.64zm0 0"/></symbol><symbol overflow="visible" id="b"><path d="M1.578-11.672h2.125l5.172 9.766v-9.766h1.53V0H8.282L3.11-9.766V0H1.577zm0 0"/></symbol><symbol overflow="visible" id="c"><path d="M1.578-11.672h1.578v4.78H8.89v-4.78h1.58V0H8.89v-5.563H3.157V0H1.578zm0 0"/></symbol></defs><g><path fill="#fff" d="M0 0h300v300H0z"/><path d="M37.555 193.94l14.656-12.284" stroke-width="1.2" stroke="#f00" stroke-miterlimit="10" fill="none"/><path d="M52.21 181.656l14.66-12.29" stroke-width="1.2" stroke="#000" stroke-miterlimit="10" fill="none"/><path d="M31.773 187.043l14.657-12.285" stroke-width="1.2" stroke="#f00" stroke-miterlimit="10" fill="none"/><path d="M46.43 174.758l14.656-12.285" stroke-width="1.2" stroke="#000" stroke-miterlimit="10" fill="none"/><path d="M21.664 180.992h13v19h-13zm0 0" fill="#fff"/><use xlink:href="#a" x="21.664" y="195.844" fill="#f00"/><path d="M63.977 165.918l18.554 4.637" stroke-width="1.2" stroke="#000" stroke-miterlimit="10" fill="none"/><path d="M82.53 170.555l18.556 4.636M61.328 127.762l1.324 19.078" stroke-width="1.2" stroke="#00f" stroke-miterlimit="10" fill="none"/><path d="M62.652 146.84l1.325 19.078" stroke-width="1.2" stroke="#000" stroke-miterlimit="10" fill="none"/><path d="M101.086 175.19l10.144-16.213" stroke-width="1.2" stroke="#00f" stroke-miterlimit="10" fill="none"/><path d="M111.23 158.977l10.14-16.215" stroke-width="1.2" stroke="#000" stroke-miterlimit="10" fill="none"/><path d="M101.086 175.19l7.156 17.736" stroke-width="1.2" stroke="#00f" stroke-miterlimit="10" fill="none"/><path d="M108.242 192.926l7.156 17.738" stroke-width="1.2" stroke="#000" stroke-miterlimit="10" fill="none"/><path d="M95.086 165.69h12v19h-12zm0 0" fill="#fff"/><use xlink:href="#b" x="95.086" y="180.543" fill="#00f"/><path d="M121.37 142.762l37.673-6.62M123.582 133.238l30.137-5.3M96.8 113.45l24.57 29.312M159.043 136.14l13.102-35.937M172.145 100.203L147.57 70.89M162.79 103.05l-19.657-23.448M172.145 100.203l37.67-6.625M147.57 70.89l-37.672 6.622M109.898 77.512L96.8 113.45M117.047 84.188l-10.48 28.75M96.8 113.45l-17.737 7.155" stroke-width="1.2" stroke="#000" stroke-miterlimit="10" fill="none"/><path d="M79.063 120.605l-17.735 7.157M61.328 127.762l-16.215-10.145" stroke-width="1.2" stroke="#00f" stroke-miterlimit="10" fill="none"/><path d="M45.113 117.617l-16.215-10.14" stroke-width="1.2" stroke="#000" stroke-miterlimit="10" fill="none"/><path d="M55.328 118.262h12v19h-12zm0 0" fill="#fff"/><use xlink:href="#b" x="55.328" y="133.113" fill="#00f"/><path d="M28.898 107.477l1.356-38.227M209.816 93.578l16.786-34.37M219.582 94.09l13.426-27.496M237.316 120.16l-27.5-26.582M226.602 59.207l18.937 2.672" stroke-width="1.2" stroke="#000" stroke-miterlimit="10" fill="none"/><path d="M245.54 61.88l18.937 2.667M264.477 64.547l6.625 37.676" stroke-width="1.2" stroke="#00f" stroke-miterlimit="10" fill="none"/><path d="M252.477 55.047h24v19h-24zm0 0" fill="#fff"/><g fill="#00f"><use xlink:href="#b" x="252.477" y="69.898"/><use xlink:href="#c" x="264.445" y="69.898"/></g><path d="M271.102 102.223l-16.89 8.968" stroke-width="1.2" stroke="#00f" stroke-miterlimit="10" fill="none"/><path d="M254.21 111.19l-16.894 8.97" stroke-width="1.2" stroke="#000" stroke-miterlimit="10" fill="none"/><path d="M263.5 96.066l-13.512 7.176" stroke-width="1.2" stroke="#00f" stroke-miterlimit="10" fill="none"/><path d="M249.988 103.242l-13.51 7.176" stroke-width="1.2" stroke="#000" stroke-miterlimit="10" fill="none"/><path d="M265.102 92.723h12v19h-12zm0 0" fill="#fff"/><use xlink:href="#b" x="265.102" y="107.574" fill="#00f"/><path d="M237.316 120.16l-5.34 37.875M231.977 158.035l-35.473 14.313M231.797 167.816l-28.38 11.45M262.105 181.602l-30.128-23.567M196.504 172.348l-5.34 37.875M191.164 210.223l30.13 23.566M199.723 205.492l24.1 18.848M191.164 210.223l-35.473 14.312M221.293 233.79l35.473-14.313M256.766 219.477l5.34-37.875M248.387 214.43l4.273-30.297M115.398 210.664l-23.562 30.13" stroke-width="1.2" stroke="#000" stroke-miterlimit="10" fill="none"/></g></svg>
